16/mimes/x-office-presentation.svg

<?xml version="1.0" encoding="UTF-8" standalone="no"?>
<!-- Created with Inkscape (http://www.inkscape.org/) -->

<svg
   xmlns:dc="http://purl.org/dc/elements/1.1/"
   xmlns:cc="http://creativecommons.org/ns#"
   xmlns:rdf="http://www.w3.org/1999/02/22-rdf-syntax-ns#"
   xmlns:svg="http://www.w3.org/2000/svg"
   xmlns="http://www.w3.org/2000/svg"
   xmlns:sodipodi="http://sodipodi.sourceforge.net/DTD/sodipodi-0.dtd"
   xmlns:inkscape="http://www.inkscape.org/namespaces/inkscape"
   width="16"
   height="16"
   id="svg4159"
   version="1.1"
   inkscape:version="0.92.4 5da689c313, 2019-01-14"
   viewBox="0 0 16 16"
   sodipodi:docname="x-office-presentation.svg">
  <title
     id="title815">Boston Icons</title>
  <defs
     id="defs4161">
    <inkscape:perspective
       sodipodi:type="inkscape:persp3d"
       inkscape:vp_x="0 : 8 : 1"
       inkscape:vp_y="0 : 1000 : 0"
       inkscape:vp_z="16 : 8 : 1"
       inkscape:persp3d-origin="8 : 5.3333333 : 1"
       id="perspective4709" />
    <clipPath
       clipPathUnits="userSpaceOnUse"
       id="clipPath5603">
      <path
         style="fill:#00ffff;fill-opacity:1;stroke:none;stroke-width:0.26458335px;stroke-linecap:butt;stroke-linejoin:miter;stroke-opacity:1"
         d="m 61.912499,165.76667 -6.879168,6.87917 6.879168,6.87916 6.879167,-6.87916 z"
         id="path5605"
         inkscape:connector-curvature="0" />
    </clipPath>
  </defs>
  <sodipodi:namedview
     id="base"
     pagecolor="#ffffff"
     bordercolor="#00fff6"
     borderopacity="1"
     inkscape:pageopacity="0"
     inkscape:pageshadow="2"
     inkscape:zoom="31.392433"
     inkscape:cx="9.1952775"
     inkscape:cy="5.6604533"
     inkscape:current-layer="g887"
     showgrid="false"
     inkscape:grid-bbox="true"
     inkscape:document-units="px"
     inkscape:window-width="1920"
     inkscape:window-height="1016"
     inkscape:window-x="0"
     inkscape:window-y="27"
     inkscape:window-maximized="1"
     showguides="false"
     inkscape:guide-bbox="true">
    <inkscape:grid
       type="xygrid"
       id="grid4707" />
    <sodipodi:guide
       position="8,9"
       orientation="1,0"
       id="guide3096"
       inkscape:locked="false" />
    <sodipodi:guide
       position="12,8"
       orientation="0,1"
       id="guide3098"
       inkscape:locked="false" />
    <sodipodi:guide
       position="6,6"
       orientation="-0.70710678,0.70710678"
       id="guide867"
       inkscape:locked="false" />
    <sodipodi:guide
       position="3,1"
       orientation="-0.70710678,0.70710678"
       id="guide869"
       inkscape:locked="false" />
    <sodipodi:guide
       position="20,0"
       orientation="0.70710678,0.70710678"
       id="guide871"
       inkscape:locked="false" />
    <sodipodi:guide
       position="17,-1"
       orientation="0.70710678,0.70710678"
       id="guide875"
       inkscape:locked="false" />
  </sodipodi:namedview>
  <metadata
     id="metadata4164">
    <rdf:RDF>
      <cc:Work
         rdf:about="">
        <dc:format>image/svg+xml</dc:format>
        <dc:type
           rdf:resource="http://purl.org/dc/dcmitype/StillImage" />
        <dc:title>Boston Icons</dc:title>
        <cc:license
           rdf:resource="dribbble.com/chrisdiaz" />
        <dc:creator>
          <cc:Agent>
            <dc:title>Christian Díaz</dc:title>
          </cc:Agent>
        </dc:creator>
        <dc:description>diazchris.deviantart.com | dribbble.com/chrisdiaz</dc:description>
        <dc:date>2019</dc:date>
        <dc:publisher>
          <cc:Agent>
            <dc:title>Christian Díaz</dc:title>
          </cc:Agent>
        </dc:publisher>
        <dc:identifier>christiandiaz.design [at] gmail [dot] com</dc:identifier>
        <dc:subject>
          <rdf:Bag>
            <rdf:li>GNOME icon Theme</rdf:li>
          </rdf:Bag>
        </dc:subject>
      </cc:Work>
    </rdf:RDF>
  </metadata>
  <g
     id="layer1"
     inkscape:label="Layer 1"
     inkscape:groupmode="layer">
    <g
       id="g887">
      <g
         id="g914">
        <rect
           y="7"
           x="0"
           height="9"
           width="12"
           id="rect858"
           style="opacity:1;fill:#af282e;fill-opacity:1;fill-rule:nonzero;stroke:none;stroke-width:6;stroke-linecap:square;stroke-linejoin:bevel;stroke-miterlimit:4;stroke-dasharray:none;stroke-dashoffset:35;stroke-opacity:1" />
        <path
           id="rect854"
           d="m 4,2 v 4 h 9 v 6 h 3 V 6 2 Z"
           style="opacity:1;fill:#af282e;fill-opacity:1;fill-rule:nonzero;stroke:none;stroke-width:6;stroke-linecap:square;stroke-linejoin:bevel;stroke-miterlimit:4;stroke-dasharray:none;stroke-dashoffset:35;stroke-opacity:1"
           inkscape:connector-curvature="0" />
        <path
           id="rect861"
           d="m 5,3 v 3 h 8 v 5 h 2 V 6 3 Z"
           style="opacity:1;fill:#d43838;fill-opacity:1;fill-rule:nonzero;stroke:none;stroke-width:6;stroke-linecap:square;stroke-linejoin:bevel;stroke-miterlimit:4;stroke-dasharray:none;stroke-dashoffset:35;stroke-opacity:1"
           inkscape:connector-curvature="0" />
        <rect
           y="8"
           x="1"
           height="7"
           width="10"
           id="rect866"
           style="opacity:1;fill:#d43838;fill-opacity:1;fill-rule:nonzero;stroke:none;stroke-width:6;stroke-linecap:square;stroke-linejoin:bevel;stroke-miterlimit:4;stroke-dasharray:none;stroke-dashoffset:35;stroke-opacity:1" />
        <path
           id="path878"
           d="M 6.9453125,11 A 2.5,2.5 0 0 0 5,9.0507812 V 11 Z"
           style="opacity:0.5;fill:#ffffff;fill-opacity:1;fill-rule:nonzero;stroke:none;stroke-width:6;stroke-linecap:square;stroke-linejoin:bevel;stroke-miterlimit:4;stroke-dasharray:none;stroke-dashoffset:35;stroke-opacity:1"
           inkscape:connector-curvature="0" />
        <path
           id="path876"
           d="M 4,9.0546875 A 2.5,2.5 0 0 0 2,11.5 2.5,2.5 0 0 0 4.5,14 2.5,2.5 0 0 0 6.9492188,12 H 5 4 v -1 z"
           style="opacity:1;fill:#ffffff;fill-opacity:1;fill-rule:nonzero;stroke:none;stroke-width:6;stroke-linecap:square;stroke-linejoin:bevel;stroke-miterlimit:4;stroke-dasharray:none;stroke-dashoffset:35;stroke-opacity:1"
           inkscape:connector-curvature="0" />
        <rect
           y="9"
           x="8"
           height="1"
           width="2"
           id="rect880"
           style="opacity:1;fill:#ffffff;fill-opacity:1;fill-rule:nonzero;stroke:none;stroke-width:6;stroke-linecap:square;stroke-linejoin:bevel;stroke-miterlimit:4;stroke-dasharray:none;stroke-dashoffset:35;stroke-opacity:1" />
        <rect
           y="11"
           x="8"
           height="1"
           width="1"
           id="rect882"
           style="opacity:1;fill:#ffffff;fill-opacity:1;fill-rule:nonzero;stroke:none;stroke-width:6;stroke-linecap:square;stroke-linejoin:bevel;stroke-miterlimit:4;stroke-dasharray:none;stroke-dashoffset:35;stroke-opacity:1" />
        <rect
           y="13"
           x="8"
           height="1"
           width="2"
           id="rect884"
           style="opacity:1;fill:#ffffff;fill-opacity:1;fill-rule:nonzero;stroke:none;stroke-width:6;stroke-linecap:square;stroke-linejoin:bevel;stroke-miterlimit:4;stroke-dasharray:none;stroke-dashoffset:35;stroke-opacity:1" />
      </g>
    </g>
  </g>
</svg>

<?xml version="1.0" encoding="UTF-8" standalone="no"?>
<!-- Created with Inkscape (http://www.inkscape.org/) -->

<svg
   xmlns:dc="http://purl.org/dc/elements/1.1/"
   xmlns:cc="http://creativecommons.org/ns#"
   xmlns:rdf="http://www.w3.org/1999/02/22-rdf-syntax-ns#"
   xmlns:svg="http://www.w3.org/2000/svg"
   xmlns="http://www.w3.org/2000/svg"
   xmlns:sodipodi="http://sodipodi.sourceforge.net/DTD/sodipodi-0.dtd"
   xmlns:inkscape="http://www.inkscape.org/namespaces/inkscape"
   width="16"
   height="16"
   id="svg4159"
   version="1.1"
   inkscape:version="0.92.4 5da689c313, 2019-01-14"
   viewBox="0 0 16 16"
   sodipodi:docname="x-office-presentation.svg">
  <title
     id="title815">Boston Icons</title>
  <defs
     id="defs4161">
    <inkscape:perspective
       sodipodi:type="inkscape:persp3d"
       inkscape:vp_x="0 : 8 : 1"
       inkscape:vp_y="0 : 1000 : 0"
       inkscape:vp_z="16 : 8 : 1"
       inkscape:persp3d-origin="8 : 5.3333333 : 1"
       id="perspective4709" />
    <clipPath
       clipPathUnits="userSpaceOnUse"
       id="clipPath5603">
      <path
         style="fill:#00ffff;fill-opacity:1;stroke:none;stroke-width:0.26458335px;stroke-linecap:butt;stroke-linejoin:miter;stroke-opacity:1"
         d="m 61.912499,165.76667 -6.879168,6.87917 6.879168,6.87916 6.879167,-6.87916 z"
         id="path5605"
         inkscape:connector-curvature="0" />
    </clipPath>
  </defs>
  <sodipodi:namedview
     id="base"
     pagecolor="#ffffff"
     bordercolor="#00fff6"
     borderopacity="1"
     inkscape:pageopacity="0"
     inkscape:pageshadow="2"
     inkscape:zoom="31.392433"
     inkscape:cx="1.0404461"
     inkscape:cy="7.1576294"
     inkscape:current-layer="g887"
     showgrid="false"
     inkscape:grid-bbox="true"
     inkscape:document-units="px"
     inkscape:window-width="1920"
     inkscape:window-height="1016"
     inkscape:window-x="0"
     inkscape:window-y="27"
     inkscape:window-maximized="1"
     showguides="false"
     inkscape:guide-bbox="true">
    <inkscape:grid
       type="xygrid"
       id="grid4707" />
    <sodipodi:guide
       position="8,9"
       orientation="1,0"
       id="guide3096"
       inkscape:locked="false" />
    <sodipodi:guide
       position="12,8"
       orientation="0,1"
       id="guide3098"
       inkscape:locked="false" />
    <sodipodi:guide
       position="6,6"
       orientation="-0.70710678,0.70710678"
       id="guide867"
       inkscape:locked="false" />
    <sodipodi:guide
       position="3,1"
       orientation="-0.70710678,0.70710678"
       id="guide869"
       inkscape:locked="false" />
    <sodipodi:guide
       position="20,0"
       orientation="0.70710678,0.70710678"
       id="guide871"
       inkscape:locked="false" />
    <sodipodi:guide
       position="17,-1"
       orientation="0.70710678,0.70710678"
       id="guide875"
       inkscape:locked="false" />
  </sodipodi:namedview>
  <metadata
     id="metadata4164">
    <rdf:RDF>
      <cc:Work
         rdf:about="">
        <dc:format>image/svg+xml</dc:format>
        <dc:type
           rdf:resource="http://purl.org/dc/dcmitype/StillImage" />
        <dc:title>Boston Icons</dc:title>
        <cc:license
           rdf:resource="dribbble.com/chrisdiaz" />
        <dc:creator>
          <cc:Agent>
            <dc:title>Christian Díaz</dc:title>
          </cc:Agent>
        </dc:creator>
        <dc:description>diazchris.deviantart.com | dribbble.com/chrisdiaz</dc:description>
        <dc:date>2019</dc:date>
        <dc:publisher>
          <cc:Agent>
            <dc:title>Christian Díaz</dc:title>
          </cc:Agent>
        </dc:publisher>
        <dc:identifier>christiandiaz.design [at] gmail [dot] com</dc:identifier>
        <dc:subject>
          <rdf:Bag>
            <rdf:li>GNOME icon Theme</rdf:li>
          </rdf:Bag>
        </dc:subject>
      </cc:Work>
    </rdf:RDF>
  </metadata>
  <g
     id="layer1"
     inkscape:label="Layer 1"
     inkscape:groupmode="layer">
    <g
       id="g887">
      <g
         id="g914">
        <rect
           y="7"
           x="0"
           height="9"
           width="12"
           id="rect858"
           style="opacity:1;fill:#c4604a;fill-opacity:1;fill-rule:nonzero;stroke:none;stroke-width:6;stroke-linecap:square;stroke-linejoin:bevel;stroke-miterlimit:4;stroke-dasharray:none;stroke-dashoffset:35;stroke-opacity:1" />
        <path
           id="rect854"
           d="M 4 2 L 4 6 L 13 6 L 13 12 L 16 12 L 16 6 L 16 2 L 4 2 z "
           style="opacity:1;fill:#c4604a;fill-opacity:1;fill-rule:nonzero;stroke:none;stroke-width:6;stroke-linecap:square;stroke-linejoin:bevel;stroke-miterlimit:4;stroke-dasharray:none;stroke-dashoffset:35;stroke-opacity:1" />
        <path
           id="rect861"
           d="M 5 3 L 5 6 L 13 6 L 13 11 L 15 11 L 15 6 L 15 3 L 5 3 z "
           style="opacity:1;fill:#e67760;fill-opacity:1;fill-rule:nonzero;stroke:none;stroke-width:6;stroke-linecap:square;stroke-linejoin:bevel;stroke-miterlimit:4;stroke-dasharray:none;stroke-dashoffset:35;stroke-opacity:1" />
        <rect
           y="8"
           x="1"
           height="7"
           width="10"
           id="rect866"
           style="opacity:1;fill:#e67760;fill-opacity:1;fill-rule:nonzero;stroke:none;stroke-width:6;stroke-linecap:square;stroke-linejoin:bevel;stroke-miterlimit:4;stroke-dasharray:none;stroke-dashoffset:35;stroke-opacity:1" />
        <path
           id="path878"
           d="M 6.9453125 11 A 2.5 2.5 0 0 0 5 9.0507812 L 5 11 L 6.9453125 11 z "
           style="opacity:0.5;fill:#ffffff;fill-opacity:1;fill-rule:nonzero;stroke:none;stroke-width:6;stroke-linecap:square;stroke-linejoin:bevel;stroke-miterlimit:4;stroke-dasharray:none;stroke-dashoffset:35;stroke-opacity:1" />
        <path
           id="path876"
           d="M 4 9.0546875 A 2.5 2.5 0 0 0 2 11.5 A 2.5 2.5 0 0 0 4.5 14 A 2.5 2.5 0 0 0 6.9492188 12 L 5 12 L 4 12 L 4 11 L 4 9.0546875 z "
           style="opacity:1;fill:#ffffff;fill-opacity:1;fill-rule:nonzero;stroke:none;stroke-width:6;stroke-linecap:square;stroke-linejoin:bevel;stroke-miterlimit:4;stroke-dasharray:none;stroke-dashoffset:35;stroke-opacity:1" />
        <rect
           y="9"
           x="8"
           height="1"
           width="2"
           id="rect880"
           style="opacity:1;fill:#ffffff;fill-opacity:1;fill-rule:nonzero;stroke:none;stroke-width:6;stroke-linecap:square;stroke-linejoin:bevel;stroke-miterlimit:4;stroke-dasharray:none;stroke-dashoffset:35;stroke-opacity:1" />
        <rect
           y="11"
           x="8"
           height="1"
           width="1"
           id="rect882"
           style="opacity:1;fill:#ffffff;fill-opacity:1;fill-rule:nonzero;stroke:none;stroke-width:6;stroke-linecap:square;stroke-linejoin:bevel;stroke-miterlimit:4;stroke-dasharray:none;stroke-dashoffset:35;stroke-opacity:1" />
        <rect
           y="13"
           x="8"
           height="1"
           width="2"
           id="rect884"
           style="opacity:1;fill:#ffffff;fill-opacity:1;fill-rule:nonzero;stroke:none;stroke-width:6;stroke-linecap:square;stroke-linejoin:bevel;stroke-miterlimit:4;stroke-dasharray:none;stroke-dashoffset:35;stroke-opacity:1" />
      </g>
    </g>
  </g>
</svg>
